X: 11
T:Maid of the Mill, Ilmington 2
M:6/8
L:1/8
A:Ilmington
P:A(AB2)4A
K:D
P:A
|:A|A>AA A2A|B>BB B2d|c>Bc ABc|d3 d2:|
P:B
|:c|B>BB B2B|A3   A2d|c>Bc ABc|d3 d2||
